X:77
T:Boscawen's Frolick
M:6/8
L:1/8
B:Thompson's Compleat Collection of 200 Favourite Country Dances, vol. 2 (London, 1765)
Z:Transcribed and edited by Flynn Titford-Mock, 2007
Z:abc's:AK/Fiddler's Companion
K:G
g | fddA AFFD | Eg f/g/a/f/ e3g | fddA AFFD | Eg f/g/a/f/ d3 :|
|: g | ff/g/a/f/ dg f/g/a/f/ df | g/a/b/g/ eg g/a/b/g/ eg | f/g/a/f/ dg f/g/a/g/ df | eg a/g/f/e/ d3 :|

